app/result/img/sl-icon-3.svg

<svg width="31" height="32" viewBox="0 0 31 32" fill="none" xmlns="http://www.w3.org/2000/svg">
<path d="M30.4143 4.71325L30.8225 4.30511C31.0589 4.06868 31.0589 3.6853 30.8225 3.44881C30.586 3.21244 30.2027 3.21244 29.9662 3.44881L29.558 3.85695L29.1501 3.44905C29.0366 3.33553 28.8826 3.27171 28.722 3.27171H28.0561L24.9636 0.179201C24.85 0.0656771 24.696 0.00186157 24.5354 0.00186157H2.18051C0.978182 0.00186157 0 0.979983 0 2.18237V13.5288C0 14.7311 0.978182 15.7093 2.18051 15.7093H7.45528L3.90819 19.2564C3.49635 19.6682 3.26955 20.2158 3.26955 20.7983C3.26955 21.3807 3.49635 21.9282 3.90819 22.3401L11.9313 30.3632C12.3431 30.7751 12.8907 31.0019 13.4731 31.0019C14.0556 31.0019 14.6032 30.7751 15.015 30.3632L21.024 24.3543C21.2605 24.1178 21.2605 23.7345 21.024 23.498C20.7876 23.2617 20.4042 23.2616 20.1678 23.498L14.1587 29.5069C13.9756 29.6901 13.7321 29.7909 13.4731 29.7909C13.2142 29.7909 12.9707 29.6901 12.7876 29.5069L4.76443 21.4838C4.58134 21.3007 4.48047 21.0572 4.48047 20.7983C4.48047 20.5393 4.58134 20.2958 4.76443 20.1127L20.3944 4.48275H28.4713L28.7019 4.71331L27.3018 6.11338C27.0646 5.99967 26.7993 5.93592 26.5192 5.93592C25.5176 5.93592 24.7028 6.75075 24.7028 7.7523C24.7028 8.75385 25.5176 9.56868 26.5192 9.56868C27.5207 9.56868 28.3356 8.75385 28.3356 7.7523C28.3356 7.47221 28.2717 7.20678 28.158 6.96968L29.5581 5.56962L29.7887 5.80017V13.877L24.0208 19.6449C23.7844 19.8814 23.7844 20.2647 24.0208 20.5012C24.2572 20.7376 24.6406 20.7376 24.8771 20.5012L30.8223 14.556C30.9358 14.4425 30.9996 14.2885 30.9996 14.1279V5.54927C30.9996 5.3887 30.9358 5.23474 30.8223 5.12115L30.4143 4.71325ZM10.8728 10.8659C10.5388 10.8659 10.2672 10.5943 10.2672 10.2603C10.2672 9.92627 10.5388 9.6546 10.8728 9.6546C11.2068 9.6546 11.4784 9.92627 11.4784 10.2603C11.4784 10.5942 11.2068 10.8659 10.8728 10.8659ZM20.1436 3.27177C19.983 3.27177 19.829 3.33559 19.7155 3.44911L12.6743 10.4902C12.6839 10.4148 12.6894 10.3382 12.6894 10.2602C12.6894 9.25856 11.8745 8.44361 10.8729 8.44361C9.87125 8.44361 9.0563 9.25856 9.0563 10.2602C9.0563 11.2619 9.87119 12.0768 10.8729 12.0768C10.9508 12.0768 11.0274 12.0713 11.1028 12.0617L8.66626 14.4983H2.18051C1.64588 14.4983 1.21092 14.0633 1.21092 13.5287V2.18237C1.21092 1.64775 1.64588 1.21278 2.18051 1.21278H24.2846L26.3436 3.27177H20.1436ZM26.5192 8.35764C26.1853 8.35764 25.9137 8.08603 25.9137 7.75218C25.9137 7.41833 26.1853 7.14672 26.5192 7.14672C26.6573 7.14672 26.7845 7.19376 26.8865 7.27199C26.9025 7.29294 26.9196 7.3134 26.9388 7.33253C26.9579 7.35167 26.9783 7.36874 26.9993 7.38479C27.0775 7.48681 27.1246 7.61395 27.1246 7.75212C27.1246 8.08603 26.853 8.35764 26.5192 8.35764Z" fill="#BE1622"/>
<path d="M20.1375 17.9135C20.2981 17.9135 20.4521 17.8497 20.5656 17.7362L21.9356 16.3661C22.172 16.1297 22.172 15.7463 21.9356 15.5098C21.6992 15.2735 21.3158 15.2735 21.0793 15.5098L20.1375 16.4517L17.1406 13.4549C16.9042 13.2185 16.5208 13.2185 16.2843 13.4549C16.0479 13.6913 16.0479 14.0747 16.2843 14.3112L19.7094 17.7362C19.823 17.8497 19.977 17.9135 20.1375 17.9135Z" fill="#BE1622"/>
<path d="M24.8469 12.5986C24.6105 12.3623 24.2271 12.3623 23.9906 12.5986L23.22 13.3693L22.3637 12.5131L23.1343 11.7425C23.3708 11.506 23.3708 11.1227 23.1343 10.8862C22.8979 10.6498 22.5145 10.6498 22.278 10.8862L21.5074 11.6568L20.6512 10.8006L21.4218 10.0299C21.6582 9.79349 21.6583 9.41011 21.4218 9.17362C21.1854 8.93731 20.802 8.93725 20.5656 9.17362L19.3668 10.3724C19.2533 10.4859 19.1895 10.6399 19.1895 10.8005C19.1895 10.9611 19.2533 11.115 19.3668 11.2286L22.7918 14.6536C22.91 14.7718 23.065 14.8309 23.22 14.8309C23.3749 14.8309 23.5299 14.7718 23.6481 14.6536L24.8468 13.4548C25.0833 13.2185 25.0833 12.8351 24.8469 12.5986Z" fill="#BE1622"/>
<path d="M18.1502 19.56C18.448 19.7118 18.8127 19.5933 18.9645 19.2953C19.1163 18.9974 18.9978 18.6329 18.6998 18.4811L14.1617 16.1692C13.928 16.0501 13.6442 16.0951 13.4588 16.2805C13.2733 16.466 13.2283 16.7498 13.3474 16.9835L15.6593 21.5216C15.7663 21.7315 15.9788 21.8524 16.1993 21.8523C16.2917 21.8523 16.3856 21.8311 16.4736 21.7862C16.7716 21.6344 16.89 21.2699 16.7383 20.9719L16.5527 20.6074L17.7858 19.3743L18.1502 19.56ZM15.9747 19.473L15.2721 18.0938L16.6513 18.7964L15.9747 19.473Z" fill="#BE1622"/>
<path d="M12.3456 24.2437C12.1092 24.4801 12.1091 24.8635 12.3456 25.1C12.4639 25.2181 12.6188 25.2773 12.7738 25.2773C12.9287 25.2773 13.0837 25.2181 13.2019 25.1L14.0582 24.2437C14.7664 23.5355 14.7664 22.3832 14.0582 21.6749C13.385 21.0018 12.311 20.969 11.5981 21.5754C11.5759 21.5922 11.5544 21.61 11.5342 21.6302L11.4894 21.6749C11.375 21.7893 11.223 21.8523 11.0613 21.8523C10.8996 21.8523 10.7475 21.7893 10.6332 21.6749C10.3971 21.4389 10.3971 21.0548 10.6332 20.8186L11.4894 19.9624C11.7258 19.7259 11.7259 19.3426 11.4894 19.1061C11.253 18.8698 10.8696 18.8697 10.6332 19.1061L9.77686 19.9623C9.06865 20.6705 9.06865 21.8229 9.77686 22.5312C10.12 22.8742 10.5761 23.0631 11.0612 23.0631C11.5457 23.0631 12.0013 22.8747 12.3443 22.5324C12.3447 22.532 12.3452 22.5316 12.3456 22.5312C12.5817 22.295 12.9658 22.295 13.2019 22.5312C13.3163 22.6455 13.3792 22.7975 13.3792 22.9592C13.3792 23.121 13.3163 23.273 13.2019 23.3874L12.3456 24.2437Z" fill="#BE1622"/>
<path d="M10.3738 3.91053C10.0827 3.74621 9.71334 3.8489 9.54896 4.14012L5.64374 11.0578C5.47936 11.349 5.5821 11.7182 5.87333 11.8826C5.96742 11.9357 6.06956 11.961 6.17043 11.961C6.38174 11.961 6.58693 11.8502 6.69821 11.653L10.6034 4.73541C10.7678 4.44419 10.6651 4.07486 10.3738 3.91053Z" fill="#BE1622"/>
<path d="M7.57894 5.45089C7.57894 4.4492 6.76404 3.6343 5.76236 3.6343C4.76067 3.6343 3.94571 4.4492 3.94571 5.45089C3.94571 6.45257 4.76061 7.26753 5.7623 7.26753C6.76398 7.26753 7.57894 6.45257 7.57894 5.45089ZM5.15665 5.45089C5.15665 5.11691 5.42832 4.84524 5.7623 4.84524C6.09627 4.84524 6.36795 5.11691 6.36795 5.45089C6.36795 5.78492 6.09627 6.0566 5.7623 6.0566C5.42832 6.0566 5.15665 5.78492 5.15665 5.45089Z" fill="#BE1622"/>
<path d="M22.5225 21.3939C22.3627 21.3939 22.2071 21.4587 22.0945 21.5714C21.9818 21.684 21.9171 21.8402 21.9171 21.9994C21.9171 22.1587 21.9818 22.3149 22.0945 22.4275C22.2071 22.5401 22.3627 22.6049 22.5225 22.6049C22.6818 22.6049 22.838 22.5401 22.9506 22.4275C23.0632 22.3149 23.128 22.1587 23.128 21.9994C23.128 21.8402 23.0632 21.684 22.9506 21.5714C22.838 21.4588 22.6818 21.3939 22.5225 21.3939Z" fill="#BE1622"/>
</svg>

<svg width="31" height="32" viewBox="0 0 31 32" fill="none" xmlns="http://www.w3.org/2000/svg"><path d="M30.414 4.713l.409-.408a.606.606 0 0 0-.857-.856l-.408.408-.408-.408a.605.605 0 0 0-.428-.177h-.666L24.964.179a.606.606 0 0 0-.429-.177H2.181C.978.002 0 .98 0 2.182V13.53c0 1.202.978 2.18 2.18 2.18h5.275l-3.547 3.547c-.412.412-.638.96-.638 1.542 0 .583.226 1.13.638 1.542l8.023 8.023c.412.412.96.639 1.542.639.583 0 1.13-.227 1.542-.639l6.009-6.009a.605.605 0 1 0-.856-.856l-6.01 6.009a.963.963 0 0 1-.685.284.963.963 0 0 1-.685-.284l-8.024-8.023a.963.963 0 0 1-.284-.686c0-.259.101-.502.284-.685l15.63-15.63h8.077l.23.23-1.4 1.4a1.818 1.818 0 0 0-2.599 1.639c0 1.002.816 1.817 1.817 1.817a1.818 1.818 0 0 0 1.639-2.6l1.4-1.4.23.231v8.077l-5.767 5.768a.606.606 0 0 0 .856.856l5.945-5.945a.605.605 0 0 0 .178-.428V5.549a.606.606 0 0 0-.178-.428l-.408-.408zm-19.541 6.153a.606.606 0 1 1 .001-1.212.606.606 0 0 1-.001 1.212zm9.27-7.594a.605.605 0 0 0-.428.177l-7.04 7.041a1.819 1.819 0 0 0-1.801-2.047 1.819 1.819 0 0 0-1.818 1.817 1.819 1.819 0 0 0 2.047 1.802l-2.437 2.436H2.181a.97.97 0 0 1-.97-.97V2.183a.97.97 0 0 1 .97-.97h22.104l2.059 2.06h-6.2zm6.376 5.086a.606.606 0 0 1 0-1.211c.138 0 .266.047.368.125a.591.591 0 0 0 .112.113.606.606 0 0 1-.48.973z" fill="#BE1622"/><path d="M20.137 17.913c.161 0 .315-.063.429-.177l1.37-1.37a.606.606 0 0 0-.857-.856l-.942.942-2.996-2.997a.606.606 0 0 0-.857.856l3.425 3.425a.606.606 0 0 0 .428.177zM24.847 12.599a.606.606 0 0 0-.856 0l-.771.77-.856-.856.77-.77a.605.605 0 1 0-.856-.857l-.77.77-.857-.855.77-.771a.605.605 0 0 0-.855-.856l-1.2 1.198a.605.605 0 0 0 0 .857l3.426 3.425a.604.604 0 0 0 .856 0l1.199-1.2a.605.605 0 0 0 0-.855zM18.15 19.56a.605.605 0 0 0 .55-1.079l-4.538-2.312a.605.605 0 0 0-.815.814l2.312 4.539a.605.605 0 1 0 1.08-.55l-.186-.365 1.233-1.233.364.186zm-2.175-.087l-.703-1.38 1.38.703-.677.677zM12.346 24.244a.606.606 0 0 0 .856.856l.856-.856a1.819 1.819 0 0 0 0-2.57 1.819 1.819 0 0 0-2.524-.044l-.045.045a.601.601 0 0 1-.856 0 .606.606 0 0 1 0-.856l.856-.857a.606.606 0 0 0-.856-.856l-.856.856a1.819 1.819 0 0 0 1.284 3.101c.485 0 .94-.188 1.283-.53l.002-.002a.606.606 0 0 1 .856.856l-.856.857zM10.374 3.91a.605.605 0 0 0-.825.23l-3.905 6.918a.605.605 0 1 0 1.054.595l3.905-6.918a.605.605 0 0 0-.23-.824zM7.579 5.45a1.819 1.819 0 0 0-1.817-1.816 1.819 1.819 0 0 0-1.816 1.817c0 1.002.815 1.817 1.816 1.817A1.819 1.819 0 0 0 7.58 5.45zm-2.422 0a.606.606 0 1 1 1.212.002.606.606 0 0 1-1.212-.001zM22.523 21.394a.609.609 0 0 0-.606.605.61.61 0 0 0 .605.606.61.61 0 0 0 .429-.178.61.61 0 0 0 .177-.428.61.61 0 0 0-.605-.605z" fill="#BE1622"/></svg>
